assets/icons/play-market.svg

<svg width="169" height="50" viewBox="0 0 169 50" fill="none" xmlns="http://www.w3.org/2000/svg">
<path fill-rule="evenodd" clip-rule="evenodd" d="M162.741 0C166.107 0 168.875 2.6889 168.996 6.02179L169 6.25V43.75C169 47.1111 166.307 49.8747 162.969 49.9958L162.741 50H6.25928C2.89319 50 0.12549 47.3111 0.00415039 43.9782L0 43.75V6.25C0 2.88889 2.69281 0.125316 6.03064 0.00415039L6.25928 0H162.741ZM162.741 1H6.25928C3.43369 1 1.11978 3.2399 1.00586 6.034L1.00146 6.25V43.75C1.00146 46.5726 3.24474 48.8819 6.04297 48.9956L6.25928 49H162.741C165.568 49 167.88 46.7613 167.994 43.9661L167.999 43.75V6.25C167.999 3.42859 165.756 1.11815 162.957 1.00439L162.741 1ZM96.7234 27.1901C97.9134 27.1901 98.8745 27.6856 99.4222 28.2615L99.5262 28.3776H99.6063V27.5126H101.826V37.0564C101.826 40.9839 99.5062 42.5952 96.7634 42.5952C94.2731 42.5952 92.7407 40.9842 92.1102 39.6049L92.0439 39.4526L94.0807 38.6076C94.4437 39.4739 95.3313 40.5001 96.7634 40.5001C98.4546 40.5001 99.5277 39.4889 99.6022 37.5931L99.6063 37.3788V36.6139H99.5262C99.0017 37.2589 97.9928 37.8226 96.7234 37.8226C94.062 37.8226 91.6195 35.5064 91.6195 32.5251C91.6195 29.5251 94.062 27.1901 96.7234 27.1901ZM149.371 27.5026L152.15 34.2776H152.23L154.908 27.5026H157.506L151.083 42.2389H148.646L151.022 36.9714L146.855 27.5026H149.371ZM29.0222 26.3417L33.8894 31.0743L16.9005 40.6843C16.4323 40.9555 15.9166 41.0767 15.3983 41.0767C15.0488 41.0767 14.7002 41.0221 14.3655 40.9019L14.1665 40.8218L29.0222 26.3417ZM12.7732 10.5455L27.6514 25.008L12.7756 39.5055C12.6171 39.1899 12.5202 38.8447 12.4923 38.4824L12.484 38.263V11.8005C12.484 11.4349 12.5544 11.0745 12.6865 10.7417L12.7732 10.5455ZM111.93 27.1901C114.247 27.1901 115.571 28.7342 116.2 29.9329L116.333 30.2025C116.373 30.2897 116.409 30.3741 116.442 30.4547L116.488 30.5726L116.729 31.1764L109.61 34.1176C110.154 35.1839 111.002 35.7276 112.191 35.7276C113.307 35.7276 114.103 35.2145 114.698 34.4202L114.814 34.2576L116.629 35.4664C116.539 35.5994 116.429 35.7473 116.299 35.9023L116.089 36.1392C115.337 36.9402 114.069 37.8226 112.191 37.8226C109.167 37.8226 106.907 35.4863 106.907 32.5063C106.907 29.3438 109.187 27.1901 111.93 27.1901ZM85.2964 27.1901C88.2407 27.1901 90.6406 29.4251 90.6406 32.5063C90.6406 35.5663 88.2407 37.8226 85.2964 37.8226C82.352 37.8226 79.951 35.5663 79.951 32.5063C79.951 29.4251 82.352 27.1901 85.2964 27.1901ZM73.6367 27.1901C76.5823 27.1901 78.9821 29.4251 78.9821 32.5063C78.9821 35.5663 76.5823 37.8226 73.6367 37.8226C70.6936 37.8226 68.2938 35.5663 68.2938 32.5063C68.2938 29.4251 70.6936 27.1901 73.6367 27.1901ZM59.7687 21.3089C62.1803 21.3089 63.9265 22.2123 65.2559 23.4188L65.4346 23.5851L63.8422 25.1764C62.8732 24.2701 61.5638 23.5639 59.7687 23.5639C56.4412 23.5639 53.8398 26.2426 53.8398 29.5651C53.8398 32.8876 56.4412 35.5663 59.7687 35.5663C61.7307 35.5663 62.925 34.8515 63.7175 34.1317L63.9436 33.9164C64.5399 33.321 64.9451 32.4859 65.131 31.3631L65.1729 31.0764H59.7687V28.8214H67.3712C67.4526 29.2239 67.4926 29.7076 67.4926 30.2301C67.4926 31.9226 67.0295 34.0163 65.536 35.5063C64.0839 37.0163 62.2286 37.8226 59.7687 37.8226C55.2094 37.8226 51.3788 34.1176 51.3788 29.5651C51.3788 25.0151 55.2094 21.3089 59.7687 21.3089ZM141.943 27.1601C144.543 27.1601 146.574 28.6216 146.688 31.2479L146.693 31.4826V37.4739H144.439V36.2689H144.358C143.815 37.0926 142.949 37.7951 141.378 37.7951C139.325 37.7951 137.492 36.4489 137.492 34.3576C137.492 32.0664 139.767 30.8401 142.002 30.8401C143.03 30.8401 143.885 31.1516 144.341 31.3893L144.439 31.4426V31.2814C144.419 29.9951 143.191 29.2714 141.983 29.2714C141.174 29.2714 140.402 29.5164 139.942 30.2523L139.848 30.4176L137.774 29.5526C138.5 27.9039 140.251 27.1601 141.943 27.1601ZM136.203 21.8739V37.5001H133.868V21.8739H136.203ZM127.445 21.8739C130.035 21.8739 132.58 23.7451 132.58 26.7264C132.58 29.6292 130.167 31.4808 127.649 31.5762L127.445 31.5801H124.184V37.5001H121.849V21.8739H127.445ZM105.778 21.8726V37.5001H103.44V21.8726H105.778ZM85.2964 29.2839C83.6827 29.2839 82.2908 30.5938 82.2908 32.5063C82.2908 34.3988 83.6827 35.7276 85.2964 35.7276C86.91 35.7276 88.3009 34.3988 88.3009 32.5063C88.3009 30.5938 86.91 29.2839 85.2964 29.2839ZM73.6367 29.2839C72.0231 29.2839 70.6322 30.5938 70.6322 32.5063C70.6322 34.3988 72.0231 35.7276 73.6367 35.7276C75.2504 35.7276 76.6411 34.3988 76.6411 32.5063C76.6411 30.5938 75.2504 29.2839 73.6367 29.2839ZM96.9249 29.2839C95.3113 29.2839 93.9592 30.6526 93.9592 32.5251C93.9592 34.3789 95.3113 35.7276 96.9249 35.7276C98.5173 35.7276 99.7678 34.3789 99.7678 32.5251C99.7678 30.6526 98.5173 29.2839 96.9249 29.2839ZM142.306 32.7289C141.158 32.7289 139.828 33.1926 139.828 34.3976C139.828 35.3426 140.896 35.7251 141.661 35.7251C143.009 35.7251 144.257 34.7002 144.439 33.2514L144.136 33.1081C143.639 32.8825 143.16 32.7289 142.306 32.7289ZM112.01 29.2426C110.863 29.2426 109.284 30.2166 109.227 32.1288V32.3452L113.988 30.3714C113.725 29.7076 112.939 29.2426 112.01 29.2426ZM30.3929 25.0068L35.6219 19.9105L40.3552 22.5855C41.2328 23.1018 41.756 24.0055 41.756 25.0018C41.756 25.9304 41.3001 26.7796 40.5259 27.3084L40.3412 27.4246L35.6257 30.093L30.3929 25.0068ZM127.506 24.0476H124.184V29.4039H127.506C129.253 29.4039 130.244 27.9376 130.244 26.7264C130.244 25.5389 129.327 24.1584 127.704 24.054L127.506 24.0476ZM14.1401 9.20673C14.9655 8.82253 15.901 8.83286 16.715 9.23462L16.9005 9.33423L33.8868 18.9305L29.0197 23.673L14.1401 9.20673ZM55.6698 8.33148C56.2416 8.33148 56.791 8.44369 57.3097 8.66681C57.7598 8.85993 58.1352 9.10933 58.4347 9.41626L58.5781 9.57452L58.7258 9.75018L57.7089 10.7637L57.5334 10.5545C57.0852 10.0201 56.471 9.75403 55.6698 9.75403C54.9438 9.75403 54.3225 10.0061 53.792 10.5164C53.2652 11.0241 53.0034 11.6788 53.0034 12.5002C53.0034 13.3218 53.2653 13.9763 53.792 14.4828C54.3218 14.9935 54.9427 15.2452 55.6698 15.2452C56.4433 15.2452 57.078 14.9919 57.5906 14.4813C57.7902 14.2812 57.9381 14.0304 58.0331 13.7255L58.0837 13.5361L58.1112 13.3881L55.4194 13.389V11.9877H59.5187L59.5554 12.1938C59.5931 12.4048 59.6119 12.6069 59.6119 12.804C59.6119 13.9149 59.2776 14.8125 58.6101 15.4803C57.8543 16.2711 56.8682 16.6677 55.6698 16.6677C54.5191 16.6677 53.5332 16.2663 52.7297 15.4693C51.9224 14.6724 51.5175 13.6785 51.5175 12.5002C51.5175 11.3222 51.9223 10.3283 52.7295 9.53021C53.5342 8.73337 54.5202 8.33148 55.6698 8.33148ZM89.3939 8.33197C90.553 8.33197 91.5329 8.73915 92.3225 9.55023C93.1097 10.3588 93.505 11.3453 93.505 12.4995C93.505 13.66 93.1108 14.6502 92.3273 15.4551C91.541 16.2616 90.5585 16.667 89.3939 16.667C88.2291 16.667 87.2465 16.2614 86.4617 15.4551C85.6777 14.6511 85.2841 13.6611 85.2841 12.4995C85.2841 11.3377 85.6777 10.3477 86.4613 9.54541C87.2461 8.73788 88.2287 8.33197 89.3939 8.33197ZM95.922 8.5L99.2 13.7401L99.1832 13.1387V8.5H100.65V16.5H99.2533L95.806 10.9771L95.8245 11.5787V16.5H94.3585V8.5H95.922ZM82.6284 8.5V9.92126L80.5294 9.92114L80.5303 16.5H79.0643L79.0642 9.92114L76.9662 9.92126V8.5H82.6284ZM76.2493 8.50012V16.5001H74.7833V8.50012H76.2493ZM71.5499 8.5V9.92126L69.451 9.92114L69.4519 16.5H67.986L67.9858 9.92114L65.8878 9.92126V8.5H71.5499ZM65.3822 8.50037V9.92163L61.9619 9.92114V11.7991H65.0454V13.2004L61.9619 13.2001V15.0771L65.3822 15.0779V16.5004H60.4962V8.50037H65.3822ZM89.3939 9.75452C88.655 9.75452 88.0396 10.0084 87.5317 10.5224C87.0238 11.0376 86.77 11.6922 86.77 12.4995C86.77 13.3079 87.0237 13.9626 87.5314 14.4775C88.0403 14.9914 88.6561 15.2457 89.3939 15.2457C90.131 15.2457 90.7477 14.991 91.2561 14.4777C91.765 13.9626 92.019 13.3083 92.019 12.4995C92.019 11.6919 91.7649 11.0375 91.2561 10.5226C90.7483 10.0087 90.1321 9.75452 89.3939 9.75452Z" fill="#504C5C"/>
</svg>

<svg width="169" height="50" fill="none" xmlns="http://www.w3.org/2000/svg"><path fill-rule="evenodd" clip-rule="evenodd" d="M162.741 0c3.366 0 6.134 2.689 6.255 6.022l.004.228v37.5c0 3.361-2.693 6.125-6.031 6.246l-.228.004H6.259C2.893 50 .125 47.311.004 43.978L0 43.75V6.25C0 2.889 2.693.125 6.03.004L6.26 0H162.74zm0 1H6.259a5.262 5.262 0 0 0-5.253 5.034L1 6.25v37.5c0 2.823 2.244 5.132 5.042 5.246l.216.004h156.482a5.26 5.26 0 0 0 5.253-5.034l.005-.216V6.25c0-2.821-2.243-5.132-5.042-5.246L162.741 1zM96.723 27.19c1.19 0 2.151.496 2.7 1.072l.103.116h.08v-.865h2.22v9.543c0 3.928-2.32 5.54-5.063 5.54-2.49 0-4.022-1.612-4.653-2.991l-.066-.152 2.037-.845c.363.866 1.25 1.892 2.682 1.892 1.692 0 2.765-1.011 2.84-2.907l.003-.214v-.765h-.08c-.524.645-1.533 1.209-2.803 1.209-2.661 0-5.103-2.317-5.103-5.298 0-3 2.442-5.335 5.103-5.335zm52.648.313 2.779 6.775h.08l2.678-6.775h2.598l-6.423 14.736h-2.437l2.376-5.268-4.167-9.468h2.516zM29.022 26.342l4.867 4.732-16.989 9.61a2.973 2.973 0 0 1-1.502.393c-.35 0-.698-.055-1.032-.175l-.2-.08 14.856-14.48zM12.773 10.546l14.878 14.462-14.875 14.497a2.742 2.742 0 0 1-.284-1.023l-.008-.219V11.801c0-.366.07-.726.203-1.06l.086-.195zM111.93 27.19c2.317 0 3.641 1.544 4.27 2.743l.133.27c.04.087.076.171.109.252l.046.118.241.603-7.119 2.942c.544 1.066 1.392 1.61 2.581 1.61 1.116 0 1.912-.514 2.507-1.308l.116-.162 1.815 1.208c-.09.133-.2.281-.33.436l-.21.237c-.752.801-2.02 1.684-3.898 1.684-3.024 0-5.284-2.337-5.284-5.317 0-3.162 2.28-5.316 5.023-5.316zm-26.634 0c2.945 0 5.345 2.235 5.345 5.316 0 3.06-2.4 5.317-5.345 5.317-2.944 0-5.345-2.257-5.345-5.317 0-3.08 2.401-5.316 5.345-5.316zm-11.66 0c2.946 0 5.346 2.235 5.346 5.316 0 3.06-2.4 5.317-5.345 5.317-2.943 0-5.343-2.257-5.343-5.317 0-3.08 2.4-5.316 5.343-5.316zM59.77 21.31c2.411 0 4.157.903 5.487 2.11l.179.166-1.593 1.591c-.969-.906-2.278-1.612-4.073-1.612-3.328 0-5.93 2.679-5.93 6.001 0 3.323 2.602 6.001 5.93 6.001 1.962 0 3.156-.715 3.949-1.434l.226-.216c.596-.595 1.001-1.43 1.187-2.553l.042-.287h-5.404v-2.255h7.602c.082.403.122.887.122 1.41 0 1.692-.463 3.785-1.957 5.275-1.452 1.51-3.307 2.317-5.767 2.317-4.56 0-8.39-3.705-8.39-8.258 0-4.55 3.83-8.256 8.39-8.256zm82.174 5.851c2.6 0 4.631 1.462 4.745 4.088l.005.235v5.99h-2.254V36.27h-.081c-.543.824-1.409 1.526-2.98 1.526-2.053 0-3.886-1.346-3.886-3.437 0-2.292 2.275-3.518 4.51-3.518 1.028 0 1.883.312 2.339.55l.098.053v-.162c-.02-1.286-1.248-2.01-2.456-2.01-.809 0-1.581.245-2.041.981l-.094.166-2.074-.865c.726-1.65 2.477-2.393 4.169-2.393zm-5.74-5.286V37.5h-2.335V21.874h2.335zm-8.758 0c2.59 0 5.135 1.871 5.135 4.852 0 2.903-2.413 4.755-4.931 4.85l-.204.004h-3.261v5.92h-2.335V21.874h5.596zm-21.667-.001V37.5h-2.338V21.873h2.338zm-20.482 7.41c-1.613 0-3.005 1.31-3.005 3.223 0 1.893 1.392 3.222 3.005 3.222 1.614 0 3.005-1.33 3.005-3.222 0-1.912-1.391-3.222-3.005-3.222zm-11.66 0c-1.613 0-3.004 1.31-3.004 3.223 0 1.893 1.391 3.222 3.005 3.222 1.613 0 3.004-1.33 3.004-3.222 0-1.912-1.39-3.222-3.004-3.222zm23.289 0c-1.614 0-2.966 1.37-2.966 3.242 0 1.854 1.352 3.203 2.966 3.203 1.592 0 2.843-1.35 2.843-3.203 0-1.872-1.25-3.241-2.843-3.241zm45.381 3.446c-1.148 0-2.478.464-2.478 1.669 0 .945 1.068 1.327 1.833 1.327a2.83 2.83 0 0 0 2.778-2.474l-.303-.143c-.497-.225-.976-.38-1.83-.38zm-30.296-3.486c-1.147 0-2.726.974-2.783 2.886v.216l4.761-1.974c-.263-.663-1.049-1.128-1.978-1.128zm-81.617-4.236 5.229-5.097 4.733 2.675c.878.517 1.401 1.42 1.401 2.417 0 .928-.456 1.778-1.23 2.306l-.185.117-4.715 2.668-5.233-5.086zm97.113-.96h-3.322v5.357h3.322c1.747 0 2.738-1.466 2.738-2.678 0-1.187-.917-2.568-2.54-2.672l-.198-.006zM14.14 9.208a2.96 2.96 0 0 1 2.575.028l.186.1 16.986 9.595-4.867 4.743L14.14 9.207zm41.53-.876c.572 0 1.121.113 1.64.336.45.193.825.442 1.125.75l.143.158.148.175-1.017 1.014-.176-.21c-.448-.534-1.062-.8-1.863-.8-.726 0-1.348.252-1.878.762-.527.508-.789 1.163-.789 1.984 0 .822.262 1.476.789 1.983.53.51 1.15.762 1.878.762.773 0 1.408-.253 1.92-.764.2-.2.348-.45.443-.755l.05-.19.028-.148-2.692.001v-1.401h4.1l.036.206c.038.21.057.413.057.61 0 1.11-.334 2.008-1.002 2.676-.756.791-1.742 1.188-2.94 1.188-1.15 0-2.137-.402-2.94-1.199-.808-.797-1.212-1.79-1.212-2.969 0-1.178.404-2.172 1.212-2.97.804-.797 1.79-1.199 2.94-1.199zm33.724.001c1.159 0 2.139.407 2.928 1.218.788.809 1.183 1.795 1.183 2.95 0 1.16-.394 2.15-1.178 2.955-.786.807-1.769 1.212-2.933 1.212-1.165 0-2.148-.406-2.932-1.212-.784-.804-1.178-1.794-1.178-2.956 0-1.161.394-2.151 1.177-2.954.785-.807 1.768-1.213 2.933-1.213zm6.528.168 3.278 5.24-.017-.601V8.5h1.467v8h-1.397l-3.447-5.523.019.602V16.5h-1.466v-8h1.563zm-13.294 0v1.421H80.53l.001 6.579h-1.466V9.921h-2.098V8.5h5.662zm-6.379 0v8h-1.466v-8h1.466zm-4.7 0v1.421h-2.098V16.5h-1.465V9.921h-2.098V8.5h5.662zm-6.167 0v1.422h-3.42v1.877h3.083V13.2h-3.083v1.877h3.42V16.5h-4.886v-8h4.886zm24.012 1.255c-.739 0-1.354.253-1.862.767-.508.516-.762 1.17-.762 1.977 0 .809.254 1.464.761 1.978.51.514 1.125.769 1.863.769.737 0 1.354-.255 1.862-.768.509-.515.763-1.17.763-1.979 0-.807-.254-1.462-.763-1.976-.508-.514-1.124-.768-1.862-.768z" fill="#504C5C"/></svg>
